X: 17368
T: High Level, The
R: hornpipe
M: 4/4
K: Gmajor
BA|G2DG B,DGB|dGBd GBAG|A2 FA DAFA|fed^c ed=cA|
G2DG B,DGB|dGBd GBAG|(3EFG FG ABcd|1 (3fed cA G2:|2 (3fec cA GA||
K: D
|:AG|FdAd FdAd|DdFA dAFA|BdGd BdGd|(3BAG (3BAG gfed|
ceAe ceAe|cA (3cBA gece|dcdf edce|d2 ce d2:|
K: G
|:ef|g2dg ecAF|GdBG D3 D|EcEc DBDB|c2AF GFE_E|
DdBG EcAF|GdBG DGFG|(3EFG cA BAGB|ADFA G2:|

